!!! OTL: Berkowitz144
!!! Chapter: 1
!!! Section: I
!!! Page: 32
!!! Mode: 
!!! Encoder: DJB
**kern
*staff1
*I"Piano
=1-
*clefG2
*k[f#c#g#d#]
*E:
*met(c|)
*M2/2
8g#/L
8f#/
8g#/
8a/J
4b\
8r
8b\
=2
4cc#\
4ee\
4r
4cc#\
=3
8b/L
8a/
8g#/
8f#/J
4g#/
8r
8e/
=4
2f#/
4r
8e/L
8f#/J
=5
8g#/L
8f#/
8g#/
8a/J
4b\
8r
8b\
=6
4cc#\
4ee\
4r
4cc#\
=7
4.b\
8a/
4g#/
4f#/
=8
!!linebreak:original
4r
4g#/
2e/
==
*-
